X: 1
T: Tammerkosken sillalla
O: trad Finland
Z: John Chambers <jc@trillian.mit.edu>
B: Pelimannis\"avelmi\a v.1, Pelimannikilta ry, (Fazer 1971)
M: 3/4
L: 1/8
K: D
|: "D"D>F A2 A2 | F>A d2 d2 | "A7"e>d c2 Bc | "D"d2 A4 :|
|: "G"d2 c2 G2 | "D"BB A2 F2 |1,3 "A7"A2 G2 EG | "D"B2 A2 F2 \
                            :|2,4 "A7"AA B2 c2 | "D"e2 d4 ||[K:Dm]
|: "Dm"DF A2 A2 | FE D2 D2 | AA B2 A2 | "A7"G2 A4 :|
|: "Dm"dd c2 A2 | "Gm"Bc "Dm"d2 A2 | dd "A7"A2 F2 | "Dm"E2 D4 :|



